X:1
T:Drowsy Maggie
R:reel
M:4/4
L:1/8
K:Edor
~E2BE dEBE|~E2BE AFDF|~E2BE dEBE|1 BABc dAFD:|2 BABc dAFA|]
d2fd c2ec|dffd faaf|d2fd cdec|BABc dAFA|
d2fd c2ec|defg a2ga|bgaf gfed|BABc dAFD|]
